X: 07044
T: GOLDILOCKS' WALTZ
C: Bob McQuillen 7 Oct  88
B: Bob's Note Book 7 #44
%R: waltz
Z: 2020 John Chambers <jc:trillian.mit.edu>
M: 3/4
L: 1/8
K: G	% and Em
B,2 C2 \
| "G"D2 D3 E | D2 G2 A2 | B2G3 "C"E | "G"D4 GA | "G"B2 BA GB | "Em"d2 c2 B2 | "Am"B2 A3 G | "D7"A2 B,2 C2 |
| "G"D2 D3 E | D2 G2 A2 | B2 G3 "C"E | "G"D4 GA | B2 d2 dc | "D7"B4 A2 | "G"G6- | G2 |]
[| G2 A2 \
| "Em"B3 A G2 | E2 G2 A2 | B2 G3 E | E4 GA | "Em"B2 BA GB | "D"d4 ed | "Em"BA G2 E2 | "Bm"D4 GA |
| "Em"B3 A G2 | E2 G2 A2 | B2 d3 B | "Am"A4 BA | "Em"G2 E2 GE | "Bm"D2 B,3 D | "Em"E6- | E2 |]
%%begintext align
%% For my
%% very dear Jennifer Richardson
%% of Jaffrey, H.H., with much love
%% always to my own special Goldilocks.
%%endtext

%%sep 1 1 500

%%sep 1 1 500

